app/img/src/logo/Lufthansa_Logo_2018.svg

<svg width="181" height="31" viewBox="0 0 181 31" fill="none" xmlns="http://www.w3.org/2000/svg">
<path d="M21.53 12.4178C21.4121 12.4178 21.3128 12.4209 21.257 12.4271C21.1918 12.5449 21.0956 12.7029 20.9529 12.9231C23.1742 12.9231 25.1909 13.1059 27.4215 13.5057L26.7917 14.1133C24.7782 13.7568 23.106 13.6143 20.9746 13.6143C20.6644 13.6143 20.5993 13.6143 20.5248 13.6174C20.4503 13.7289 20.2828 13.9459 20.1153 14.1474C20.3045 14.135 20.6706 14.1288 21.1763 14.1288C22.9292 14.1288 24.5673 14.2589 26.345 14.5441L25.7151 15.1547C24.3625 14.944 22.7089 14.8231 21.2259 14.8231C20.6985 14.8231 20.0998 14.8417 19.563 14.8727C19.442 15.0121 19.1256 15.3531 19.0294 15.4585C19.7398 15.3841 20.5217 15.35 21.4524 15.35C22.7772 15.35 24.043 15.4368 25.2405 15.6135L24.6107 16.2179C23.7575 16.1125 22.7213 16.0506 21.8061 16.0506C19.4452 16.0506 17.5837 16.5619 15.6601 17.7367C17.4937 19.7018 20.4969 20.9448 23.407 20.9448H23.68L22.6624 21.9275C18.4648 21.1401 14.0469 19.2958 10.3147 16.7696C6.72512 14.3488 5.46864 13.6329 2.66715 12.3962L2.64854 11.677L4.54413 12.4891L5.18944 11.9777L11.3788 14.8107L10.9754 15.133L7.79857 13.7538L7.48522 13.9986L9.13576 14.9192C10.5288 15.6941 11.5897 16.0412 12.5702 16.0412C14.7139 16.0412 16.6375 14.5224 17.8784 11.8537C18.8123 11.7328 19.8081 11.677 21.0057 11.677C23.4628 11.677 25.8485 11.9126 28.5508 12.4178L27.8931 13.0532C26.2116 12.7029 23.3542 12.4178 21.53 12.4178ZM15.5143 30.0699C7.46245 30.0699 0.930936 23.5444 0.930936 15.5C0.930936 7.45551 7.46245 0.929936 15.5143 0.929936C23.5662 0.929936 30.0977 7.45551 30.0977 15.5C30.0977 23.5444 23.5662 30.0699 15.5143 30.0699ZM15.5143 1.84774e-06C6.93499 1.84774e-06 2.49425e-07 6.92846 2.49425e-07 15.5C2.49425e-07 24.0715 6.93499 31 15.5143 31C24.0937 31 31.0286 24.0715 31.0286 15.5C31.0286 6.92846 24.0937 1.84774e-06 15.5143 1.84774e-06ZM56.5015 21.6705H65.3964V25.8333H51.7143V5.16658H56.5015V21.6705ZM76.153 10.9533H80.6151V25.8333H76.419V24.121C75.7983 25.2724 74.5278 26.2761 72.1931 26.2761C68.3812 26.2761 66.4012 24.5637 66.4012 19.6628V10.9533H70.8634V19.4561C70.8634 21.4343 71.7205 22.3199 73.5231 22.3199C75.1483 22.3199 76.153 21.4343 76.153 19.4561V10.9533ZM84.0431 10.3924C84.0431 6.79059 86.3187 4.87138 89.8943 4.87138C91.047 4.87138 91.7856 5.04855 91.7856 5.04855V8.65039C91.7856 8.65039 91.165 8.59155 90.633 8.59155C89.2441 8.59155 88.5052 9.06392 88.5052 10.3629V10.9533H91.7856V14.5848H88.5052V25.8333H84.0431V14.5848H81.7973V10.9533H84.0431V10.3924ZM99.6458 10.9533H103.044V14.5848H99.6458V20.3714C99.6458 21.9658 100.473 22.3791 101.773 22.3791C102.305 22.3791 103.044 22.2906 103.044 22.2906V25.8629C103.044 25.8629 102.01 26.0989 100.917 26.0989C97.341 26.0989 95.1837 24.4752 95.1837 20.8735V14.5848H92.9378V10.9533H95.1837V6.61336H99.6458V10.9533ZM112.924 10.5105C116.706 10.5105 118.686 12.2228 118.686 17.1238V25.8333H114.224V17.3304C114.224 15.3524 113.367 14.4668 111.505 14.4668C109.821 14.4668 108.816 15.3524 108.816 17.3304V25.8333H104.354V5.19618H108.846V12.3999C109.614 11.3075 110.825 10.5105 112.924 10.5105ZM130.063 20.0466C130.063 21.6705 128.526 22.881 126.162 22.881C125.01 22.881 124.33 22.3496 124.33 21.3457C124.33 20.5781 124.803 19.9286 126.31 19.7221L128.881 19.3676C129.324 19.3085 129.797 19.2201 130.063 19.1315V20.0466ZM127.581 10.5105C123.178 10.5105 121.05 12.1935 120.873 15.3525H125.217C125.276 14.5257 125.749 13.9057 127.581 13.9057C129.206 13.9057 129.975 14.4373 129.975 15.2342C129.975 15.943 129.531 16.2086 128.438 16.3267L125.601 16.6219C121.759 17.0351 120.016 18.6295 120.016 21.523C120.016 24.2096 121.671 26.2761 125.187 26.2761C127.581 26.2761 128.999 25.5085 130.241 23.9732V25.8333H134.319V16.061C134.319 11.9572 131.925 10.5105 127.581 10.5105ZM144.636 10.5105C148.508 10.5105 150.488 12.2228 150.488 17.1238V25.8333H146.025V17.3304C146.025 15.3524 145.168 14.4668 143.307 14.4668C141.622 14.4668 140.618 15.3524 140.618 17.3304V25.8333H136.156V10.9534H140.352V12.6658C140.972 11.5143 142.243 10.5105 144.636 10.5105ZM159.901 16.5038C163.683 17.0058 165.575 18.1867 165.575 21.2867C165.575 24.4162 163.358 26.2762 158.66 26.2762C153.547 26.2762 151.745 24.2392 151.656 21.257H156.059C156.177 22.3496 156.946 22.881 158.66 22.881C160.403 22.881 161.112 22.4676 161.112 21.641C161.112 20.8735 160.521 20.5192 158.985 20.3125L157.418 20.1057C154.138 19.6629 152.247 18.3934 152.247 15.441C152.247 12.6067 154.345 10.5105 158.748 10.5105C162.826 10.5105 165.013 12.1343 165.22 15.3524H160.876C160.728 14.4964 160.255 13.9648 158.748 13.9648C157.271 13.9648 156.709 14.4668 156.709 15.1164C156.709 15.7657 157.064 16.12 158.334 16.2973L159.901 16.5038ZM176.745 20.0469C176.745 21.6706 175.208 22.881 172.844 22.881C171.692 22.881 171.012 22.3496 171.012 21.3457C171.012 20.5781 171.485 19.9286 172.992 19.7221L175.563 19.3676C176.006 19.3088 176.479 19.2201 176.745 19.1315V20.0469ZM174.262 10.5105C169.859 10.5105 167.732 12.1935 167.554 15.3525H171.898C171.958 14.5257 172.43 13.9059 174.262 13.9059C175.888 13.9059 176.656 14.4373 176.656 15.2344C176.656 15.943 176.213 16.2086 175.119 16.3267L172.283 16.6219C168.441 17.0353 166.697 18.6296 166.697 21.523C166.697 24.2096 168.352 26.2761 171.869 26.2761C174.262 26.2761 175.681 25.5085 176.922 23.9732V25.8333H181V16.061C181 11.9574 178.606 10.5105 174.262 10.5105Z" fill="black"/>
</svg>

<svg width="181" height="31" fill="none" xmlns="http://www.w3.org/2000/svg"><path d="M21.53 12.418c-.118 0-.217.003-.273.01a8.75 8.75 0 01-.304.495c2.221 0 4.238.183 6.469.583l-.63.607c-2.014-.356-3.686-.499-5.817-.499-.31 0-.376 0-.45.003a7.892 7.892 0 01-.41.53c.19-.012.556-.018 1.061-.018a31.8 31.8 0 015.169.415l-.63.61a30.769 30.769 0 00-4.49-.33c-.527 0-1.125.018-1.662.049-.121.14-.437.48-.534.586.71-.075 1.493-.109 2.423-.109 1.325 0 2.591.087 3.788.264l-.63.604a24.176 24.176 0 00-2.804-.167c-2.36 0-4.222.51-6.146 1.686 1.834 1.965 4.837 3.208 7.747 3.208h.273l-1.018.982c-4.197-.787-8.615-2.631-12.347-5.157-3.59-2.421-4.846-3.137-7.648-4.374l-.018-.719 1.895.812.645-.511 6.19 2.833-.404.322-3.176-1.38-.314.246 1.65.92c1.394.775 2.455 1.122 3.435 1.122 2.144 0 4.067-1.519 5.308-4.187.934-.121 1.93-.177 3.128-.177 2.457 0 4.843.236 7.545.74l-.658.636c-1.681-.35-4.539-.635-6.363-.635zM15.514 30.07C7.462 30.07.931 23.544.931 15.5S7.462.93 15.514.93 30.098 7.456 30.098 15.5s-6.532 14.57-14.584 14.57zm0-30.07C6.935 0 0 6.928 0 15.5S6.935 31 15.514 31c8.58 0 15.515-6.928 15.515-15.5S24.094 0 15.514 0zm40.988 21.67h8.894v4.163H51.714V5.167h4.788V21.67zm19.651-10.717h4.462v14.88H76.42v-1.712c-.62 1.151-1.891 2.155-4.226 2.155-3.812 0-5.792-1.712-5.792-6.613v-8.71h4.462v8.503c0 1.978.858 2.864 2.66 2.864 1.625 0 2.63-.886 2.63-2.864v-8.503zm7.89-.56c0-3.602 2.276-5.522 5.851-5.522 1.153 0 1.892.178 1.892.178V8.65s-.621-.058-1.153-.058c-1.389 0-2.128.472-2.128 1.77v.591h3.28v3.632h-3.28v11.248h-4.462V14.585h-2.246v-3.632h2.246v-.56zm15.603.56h3.398v3.632h-3.398v5.786c0 1.595.827 2.008 2.127 2.008.532 0 1.271-.088 1.271-.088v3.572s-1.034.236-2.127.236c-3.576 0-5.733-1.624-5.733-5.226v-6.288h-2.246v-3.632h2.246v-4.34h4.462v4.34zm13.278-.442c3.782 0 5.762 1.712 5.762 6.613v8.71h-4.462V17.33c0-1.978-.857-2.863-2.719-2.863-1.684 0-2.689.885-2.689 2.863v8.503h-4.462V5.196h4.492V12.4c.768-1.093 1.979-1.89 4.078-1.89zm17.139 9.536c0 1.623-1.537 2.834-3.901 2.834-1.152 0-1.832-.531-1.832-1.535 0-.768.473-1.417 1.98-1.624l2.571-.354c.443-.06.916-.148 1.182-.236v.915zm-2.482-9.537c-4.403 0-6.531 1.684-6.708 4.842h4.344c.059-.826.532-1.446 2.364-1.446 1.625 0 2.394.531 2.394 1.328 0 .709-.444.975-1.537 1.093l-2.837.295c-3.842.413-5.585 2.008-5.585 4.901 0 2.687 1.655 4.753 5.171 4.753 2.394 0 3.812-.767 5.054-2.303v1.86h4.078v-9.772c0-4.104-2.394-5.55-6.738-5.55zm17.055 0c3.872 0 5.852 1.713 5.852 6.614v8.71h-4.463V17.33c0-1.978-.857-2.863-2.718-2.863-1.685 0-2.689.885-2.689 2.863v8.503h-4.462v-14.88h4.196v1.713c.62-1.152 1.891-2.155 4.284-2.155zm15.265 5.994c3.782.502 5.674 1.683 5.674 4.783 0 3.13-2.217 4.99-6.915 4.99-5.113 0-6.915-2.038-7.004-5.02h4.403c.118 1.093.887 1.624 2.601 1.624 1.743 0 2.452-.413 2.452-1.24 0-.767-.591-1.122-2.127-1.328l-1.567-.207c-3.28-.443-5.171-1.713-5.171-4.665 0-2.834 2.098-4.93 6.501-4.93 4.078 0 6.265 1.623 6.472 4.841h-4.344c-.148-.856-.621-1.387-2.128-1.387-1.477 0-2.039.502-2.039 1.151 0 .65.355 1.004 1.625 1.181l1.567.207zm16.844 3.543c0 1.624-1.537 2.834-3.901 2.834-1.152 0-1.832-.531-1.832-1.535 0-.768.473-1.417 1.98-1.624l2.571-.354c.443-.06.916-.148 1.182-.236v.915zm-2.483-9.537c-4.403 0-6.53 1.684-6.708 4.842h4.344c.06-.826.532-1.446 2.364-1.446 1.626 0 2.394.531 2.394 1.328 0 .709-.443.975-1.537 1.093l-2.836.295c-3.842.413-5.586 2.008-5.586 4.901 0 2.687 1.655 4.753 5.172 4.753 2.393 0 3.812-.767 5.053-2.303v1.86H181v-9.772c0-4.104-2.394-5.55-6.738-5.55z" fill="#000"/></svg>
